!!!OTL: SCHOEN SIND ROSEN UND JASMIN
!!!ARE: Europa, Mitteleuropa, Deutschland
!!!SCT: F0936
!!!YEM: Copyright 1995, estate of Helmut Schaffrath.
**kern
*ICvox
*Ivox
*M4/4
*k[b-e-a-]
*E-:
{8b-
8ee-
8g
8a-
=1
8b-
8ee-
8g
8a-
8b-
8ee-
8b-
8cc
=2
2b-}
{8a-
8cc
8f
8a-
=3
8g
8b-
8f
8a-
2g
=4
8f
4.r}
{8b-
8ee-
8g
8a-
=5
8b-
8ee-
8g
8a-
8b-
8ee-
8b-
8cc
=6
2b-}
{8a-
8cc
8f
8a-
=7
8g
8b-
8f
8a-
2g
=8
4f
4r}
{4b-
8an
8b-
=9
4cc
8b-
8cc
4dd
8cc
8dd
=10
2ee-}
{8dd
8ff
8cc
8ee-
=11
8dd
8ff
8ee-
8cc
2an
=12
2b-}
{8b-
8ee-
8g
8a-
=13
8b-
8ee-
8g
8a-
8b-
8ee-
8b-
8cc
=14
2b-}
{8a-
8cc
8f
8a-
=15
8g
8b-
8e-
8g
8f
8a-
8d
8f
=16
8e-
4.r}
{8a-
8cc
8f
8a-
=17
8g
8b-
8e-
8g
8f
8a-
8d
8f
=18
8e-
4.r}
==
!!!AGN: Liebes - Lied
!!!ONB: ESAC (Essen Associative Code) Database: FINK
!!!AMT: simple quadruple
!!!AIN: vox
!!!EED: Helmut Schaffrath
!!!EEV: 1.0
*-
